!!!COM: Dunstable, John
!!!OTL: Crux Fidelis
!!!ONM: No. 39
!!!YOR: from: "Musica Britannica" Vol. 8, edited by Manfred F. Bukofzer,
!!!YOR: 2nd rev. ed. (prepared by Margaret Bent, Ian Bent & Brian Trowell), pp.103-105
!!!YOO: Royal Musical Association (London)
!!!YOY: 1970
**kern	**kern	**kern
*ICvox	*ICvox	*ICvox
! tenor	! contratenor	! discantus
*M3/4	*M3/4	*M3/4
=1	=1	=1
*>A	*>A	*>A
!! Section 'A'; (O) mensuration.
2.c	[2.c	[2.cc
=2	=2	=2
2.F	2.c]	4cc]
.	.	4.a
.	.	8g
=3	=3	=3
2.B-	2.d	4g
.	.	8f
.	.	4f
.	.	8d
=4	=4	=4
2.A	4e	4c
.	4e	4r
.	4c	8e
.	.	8f
=5	=5	=5
2.G	4.d	4g
.	.	4.b
.	4.e	.
.	.	8a
=6	=6	=6
2.F	2.f	4.cc
.	.	8dd
.	.	8cc
.	.	[8a
=7	=7	=7
2.c	2.e	16a]
.	.	16g
.	.	4g
.	.	8a
.	.	8cc
.	.	8a
=8	=8	=8
2.G	2.d	8b
.	.	8cc
.	.	8.dd
.	.	16cc
.	.	16b
.	.	16a
.	.	8b
=9	=9	=9
[2.A	[2.c	8cc
.	.	8.a
.	.	16g
.	.	8a
.	.	8.f
.	.	16e
=10	=10	=10
2.A]	2.c]	2.e
=11	=11	=11
2.F	2c	2f
.	[4A	4a
=12	=12	=12
2.f	4A]	4cc
.	4B-	8dd
.	.	8dd
.	4A	8cc
.	.	8a
=13	=13	=13
2.g	[2.G	4.b
.	.	8.g
.	.	16a
.	.	8b
=14	=14	=14
4e	2.G]	8cc
.	.	4dd
2d	.	.
.	.	8cc
.	.	8b
.	.	16a
.	.	16b
=15	=15	=15
2c	4A	4cc
.	[2c	8a
.	.	8.g
4A	.	.
.	.	16f
.	.	[8a
=16	=16	=16
8F	2c]	16a]
.	.	16f
8E	.	8g
4F	.	8f
.	.	8d
4G	4B-	8e
.	.	16d
.	.	16e
=17	=17	=17
[2.F	[2.c	2.f
=18	=18	=18
2.F]	4c]	4r
.	2r	4a
.	.	8b-x
.	.	[8cc
=19	=19	=19
*>B	*>B	*>B
!! Section 'B'; (O) mensuration.
2f	2.r	4cc]
.	.	8a
.	.	8f
4e	.	4g
=20	=20	=20
4f	2.r	4d
8e	.	8.c
4c	.	.
.	.	16d
.	.	8e
8B-	.	[8g
=21	=21	=21
4c	2.r	8g]
.	.	8a
4e	.	8g
.	.	4cc
4d	.	8b
=22	=22	=22
4c	2.r	8.cc
.	.	16a
8d	.	8b-
8c	.	8a
4A	.	16g
.	.	16f
.	.	[8e
=23	=23	=23
*>C	*>C	*>C
!! Section 'C'; (O) mensuration.
4c	2r	16e]
.	.	16f
.	.	8a
8d	.	8b-x
8c	.	8.a
4B-	4d	.
.	.	16g
.	.	16g
.	.	16f
=24	=24	=24
2.A	2.e	2.a
=25	=25	=25
4c	4.e	4r
4G	.	4b
.	8d	.
4A	4f	4cc
=26	=26	=26
2.G	2.g	4.dd
.	.	8cc
.	.	8b
.	.	8a
=27	=27	=27
4r	2.f	2.a
4.d	.	.
8c	.	.
=28	=28	=28
2c	4e	2.r
.	2d	.
4Bnx	.	.
=29	=29	=29
2.c	2.c	4.g
.	.	8a
.	.	8b
.	.	[8cc
=30	=30	=30
4.F	2.r	8cc]
.	.	8.a
.	.	16g
8G	.	8b-x
4A	.	8a
.	.	[8f
=31	=31	=31
4B-	4d	16f]
.	.	16e
.	.	4g
4c	4.e	.
.	.	4a
[4A	8c	8f
=32	=32	=32
4A]	2c	8e
.	.	8f
2G	.	8g
.	.	8f
.	4B-	8e
.	.	16d
.	.	16e
=33	=33	=33
2.F	2c	2.f
.	4r	.
=34	=34	=34
2.B-	[2.g	2.d
=35	=35	=35
2.c	4g]	2.c
.	4.a	.
.	8g	.
=36	=36	=36
4B-	4g	2r
2A	4.f	.
.	.	4cc
.	8e	.
=37	=37	=37
2G	[2.g	8b
.	.	4dd
.	.	4ee
4c	.	.
.	.	[8cc
=38	=38	=38
4e	4g]	8cc]
.	.	4d
2d	4.f	.
.	.	8b
.	.	8b
.	8e	8a
=39	=39	=39
2.c	[2.g	2.c
=40	=40	=40
2.G	2.g]	4r
.	.	4.dd
.	.	8cc
=41	=41	=41
4d	4f	8b-
.	.	8a
2c	4.e	8cc
.	.	8b-
.	.	8g
.	8d	8a
=42	=42	=42
4B-	2d	8b-x
.	.	4g
2A	.	.
.	.	8e
.	4c	8f#x
.	.	16e
.	.	16f#x
=43	=43	=43
[2.G	2.d	2.g
=44	=44	=44
2G]	4.e	4r
.	.	4b
.	8g	.
4A	8f	4cc
.	8e	.
=45	=45	=45
4G	4g	4.dd
2d	4f	.
.	.	8cc
.	4d	4b
=46	=46	=46
4c	4.e	8a
.	.	4a
2B-	.	.
.	4d	8g
.	.	8g
.	8c	8f
=47	=47	=47
2.A	2.e	2a
.	.	4r
=48	=48	=48
*>D	*>D	*>D
!! Section 'D'; (O) mensuration.
2.r	2e	4.g
.	.	8e
.	4d	8f
.	.	8g
=49	=49	=49
2.r	4c	4e
.	[2d	8d
.	.	4f
.	.	8g
=50	=50	=50
2.r	4d]	8a
.	.	8b
.	[2c	4.cc
.	.	8b
=51	=51	=51
2.r	4c]	8g
.	.	8a
.	2A	8g
.	.	4f#x
.	.	8e
=52	=52	=52
2.r	4G	8g
.	.	8e
.	8A	8f
.	8B-	4g
.	8.c	.
.	.	[8a
.	16A	.
=53	=53	=53
2.r	8c	16a]
.	.	16g
.	16B-	8g
.	16c	.
.	8d	8f
.	4c	8e
.	.	4d
.	8Bnx	.
=54	=54	=54
2r	2.c	2.c
4c	.	.
=55	=55	=55
*>E	*>E	*>E
!! Section 'E'; (O) mensuration.
4B-	4d	2r
2G	4.e	.
.	.	4g
.	8d	.
=56	=56	=56
[2.F	[2.f	2a
.	.	[4cc
=57	=57	=57
2.F]	2.f]	4cc]
.	.	2dd
=58	=58	=58
4A	4e	4cc
2B-	2d	4b-
.	.	8a
.	.	8g
=59	=59	=59
[2.c	[2.e	[2.g
=60	=60	=60
2.c]	2.e]	2.g]
=61	=61	=61
2r	2.c	2.e
4A	.	.
=62	=62	=62
4B-	4d	2.r
2c	2e	.
=63	=63	=63
2d	2d	4r
.	.	4f
4c	4e	4g
=64	=64	=64
2.r	4f	8a
.	.	4cc
.	2d	.
.	.	8dd
.	.	8b
.	.	8a
=65	=65	=65
2r	2.c	4cc
.	.	4r
4c	.	4cc
=66	=66	=66
2.G	2r	4.dd
.	.	8cc
.	4d	8b
.	.	8a
=67	=67	=67
4F	4d	4a
8E	8e	8g
4F	8c	8a
.	8d	8f
8G	8B-	[8e
=68	=68	=68
8A	8c	16e]
.	.	16f
8B-	8d	4g
4c	12c	.
.	12d	.
.	.	4a
.	12e	.
4d	4f	.
.	.	8b
=69	=69	=69
4.c	8g	4cc
.	8.e	.
.	.	8a
.	16c	.
8B-	8d	8g
4A	8e	8a
.	8c	[8f
=70	=70	=70
4B-	4.d	16f]
.	.	16e
.	.	8.g
2G	.	.
.	.	16f
.	8c	8.f
.	8.B-	.
.	.	16e
.	.	16e
.	16A	16d
=71	=71	=71
[2.F	[2.c	[2.f
=71a	=71a	=71a
2.F]	2.c]	2.f]
=72	=72	=72
*>F	*>F	*>F
!! Section 'F'; (O) mensuration.
2F	2.r	2.cc
4A	.	.
=73	=73	=73
4B-	2.r	4.dd
4.G	.	.
.	.	8cc
.	.	8b
8F	.	8a
=74	=74	=74
8A	2.r	8cc
8G	.	8b
8B-	.	8.g
8.c	.	.
.	.	16a
.	.	8b
16d	.	.
8e	.	8cc
=75	=75	=75
8f	2.r	8a
8g	.	4g
8e	.	.
8f	.	8a
4d	.	8b
.	.	16a
.	.	16b
=76	=76	=76
2.c	2.r	2cc
.	.	4r
=77	=77	=77
4.g	2.r	2.b-x
8f	.	.
8d	.	.
8e	.	.
=78	=78	=78
8c	2.r	4a
4f	.	.
.	.	4f
4d	.	.
.	.	8.a
[8c	.	.
.	.	16b-x
=79	=79	=79
8c]	2.r	8cc
2F	.	16b-x
.	.	16cc
.	.	8dd
.	.	8cc
.	.	8a
8G	.	8b-x
=80	=80	=80
8B-	2.r	8g
8A	.	4a
4F	.	.
.	.	8f
4c	.	4e
=81	=81	=81
8d	2.r	8f
8e	.	8.g
8c	.	.
.	.	16e
8d	.	4f
4f	.	.
.	.	8d
=82	=82	=82
8e	2.r	8.c
4c	.	.
.	.	16d
.	.	8e
8d	.	8f
8e	.	4g
16d	.	.
16e	.	.
=83	=83	=83
2f	2.r	4f
.	.	4r
4r	.	[4a
=84	=84	=84
4c	2.r	8a]
.	.	8g
8d	.	8b
8c	.	8cc
8G	.	8.dd
[8d	.	.
.	.	16cc
=85	=85	=85
4d]	2.r	16b
.	.	16a
.	.	8b
8A	.	8cc
8c	.	8a
4B-	.	8g
.	.	16f
.	.	16g
=86	=86	=86
2.A	2.r	2.a
=87	=87	=87
2.r	2.r	2.r
=88	=88	=88
2.A	2.r	[2.f#
=89	=89	=89
2.B-	2.r	4f#]
.	.	2g
=90	=90	=90
2.F	2.r	4.a
.	.	8f
.	.	8a
.	.	[8cc
=91	=91	=91
2.f	2.r	16cc]
.	.	16b-x
.	.	4dd
.	.	8cc
.	.	4a
=92	=92	=92
4.g	2.r	4g
.	.	4r
8e	.	.
4f	.	[4dd
=93	=93	=93
4c	2.r	8dd]
.	.	4cc
4e	.	.
.	.	4b
4d	.	.
.	.	8a
=94	=94	=94
4c	2.r	2c
4r	.	.
4f	.	4r
=95	=95	=95
8e	2.r	4cc
4c	.	.
.	.	8a
8d	.	8f
4e	.	8g
.	.	[8a
=96	=96	=96
8f	2.r	8a]
4g	.	8g
.	.	8b
8e	.	8cc
8f	.	4dd
8g	.	.
=97	=97	=97
4a	2.r	8cc
.	.	8a
8g	.	8b
8e	.	4cc
4f	.	.
.	.	8a
=98	=98	=98
8d	2.r	8b
8c	.	8cc
8f	.	8a
4f	.	8f
.	.	4g
8e	.	.
=99	=99	=99
2f	2.r	2.f
4r	.	.
=100	=100	=100
4.G	2.r	2r
8A	.	.
4B-	.	4g
=101	=101	=101
2.F	2.r	4.a
.	.	8b
.	.	4cc
=102	=102	=102
4f	2.r	8a
.	.	4f
8d	.	.
8e	.	8g
4f	.	8f
.	.	[8a
=103	=103	=103
8c	2.r	8a]
8e	.	8g
8d	.	8f
4c	.	8e
.	.	4d
8Bnx	.	.
=104	=104	=104
8.c	2.r	8c
.	.	8e
16A	.	.
4B-	.	8d
.	.	8.g
8G	.	.
.	.	16f
8F	.	8a
=105	=105	=105
8E	2.r	16b-x
.	.	16a
8F	.	16g
.	.	16f
8A	.	8f
8B-	.	8d
4G	.	8e
.	.	16d
.	.	16e
=106	=106	=106
[2.F	2.r	[2.f
=106a	=106a	=106a
2.F]	2.r	2.f]
!! Start of section G
*M2/2	*M2/2	*M2/2
=107	=107	=107
*>G	*>G	*>G
!! Section 'G'; (C/) mensuration.
1c	1c	1g
=108	=108	=108
2A	2.e	4a
.	.	4cc
2G	.	4b
.	4d	[4dd
=109	=109	=109
1F	1f	8dd]
.	.	8cc
.	.	4.cc
.	.	8b
.	.	8a
.	.	8g
=110	=110	=110
1c	1e	8g
.	.	8a
.	.	4cc
.	.	8b-
.	.	8.a
.	.	16g
.	.	[8g
=111	=111	=111
4B-	2d	8g]
.	.	4d
4G	.	.
.	.	8g
2A	2c	8f#x
.	.	8g
.	.	8a
.	.	8f#x
=112	=112	=112
1G	1d	2g
.	.	2r
=113	=113	=113
4c	2r	4a
4d	.	4b
2e	2A	2cc
=114	=114	=114
4d	2B-	4dd
2f	.	4dd
.	2A	4.cc
4e	.	.
.	.	8a
=115	=115	=115
1g	1G	4.b
.	.	8cc
.	.	4dd
.	.	4dd
=116	=116	=116
4e	2A	4cc
4f	.	4a
4e	2c	4.g
[4c	.	.
.	.	8a
=117	=117	=117
2.c]	2r	16a
.	.	16g
.	.	8a
.	.	8b
.	.	4cc
.	2c	.
.	.	8g
4A	.	8a
.	.	8cc
=118	=118	=118
2G	1d	4.b
.	.	16a
.	.	16b
4F	.	8a
.	.	8g
4G	.	4g
=119	=119	=119
1A	[1c	8f
.	.	4f
.	.	8e
.	.	2e
=120	=120	=120
1F	1c]	4r
.	.	2a
.	.	[4cc
=121	=121	=121
2A	2c	8cc]
.	.	8b-
.	.	8a
.	.	8f
2B-	2d	8g
.	.	4f
.	.	8d
=122	=122	=122
2.A	2e	1c
.	2r	.
[4c	.	.
=123	=123	=123
4c]	2.e	2r
4A	.	.
2G	.	2b-x
.	4d	.
=124	=124	=124
2F	2f	4.cc
.	.	8a
4G	4d	8b-x
.	.	16a
.	.	16b-x
[4A	4c	4cc
=125	=125	=125
4A]	1e	4a
4B-	.	2g
2c	.	.
.	.	[4a
=126	=126	=126
1F	4c	8a]
.	.	8f
.	4d	8a
.	.	8b-x
.	4c	4.cc
.	[4f	.
.	.	8b-x
=127	=127	=127
4r	4f]	8.a
.	.	16g
4G	2d	8b-x
.	.	4a
2B-	.	.
.	.	8g
.	4c	8g
.	.	8f
=128	=128	=128
1A	2c	1a
.	2r	.
=129	=129	=129
*>H1	*>H1	*>H1
!! Section 'H1'; (C/) mensuration.
2c	4.e	1r
.	8f	.
4B-	4g	.
4A	[4a	.
=130	=130	=130
4F	2a]	1r
2c	.	.
.	4g	.
[4d	[4f	.
=131	=131	=131
8d]	8f]	1r
8c	8e	.
2c	4e	.
.	2d	.
4Bnx	.	.
=132	=132	=132
*>H2	*>H2	*>H2
!! Section 'H2'; (C/) mensuration.
4.c	2c	2.cc
8d	.	.
4e	2r	.
4d	.	4b
=133	=133	=133
2f	1r	4.a
.	.	8g
4.e	.	4g
.	.	8e
8c	.	8e
=134	=134	=134
4d	1r	8f
.	.	8g
4c	.	8e
.	.	4g
2Bnx	.	.
.	.	8f
.	.	4d
=135	=135	=135
2c	2r	1c
*>I	*>I	*>I
!! Section 'I'; (C/) mensuration.
4r	[2c	.
4c	.	.
=136	=136	=136
2e	2c]	2r
2f	2A	2cc
=137	=137	=137
1g	1G	2.b
.	.	4a
=138	=138	=138
2.f	1d	1a
4d	.	.
=139	=139	=139
2e	4r	4g
.	4c	8a
.	.	4cc
4r	2d	.
.	.	8b
4d	.	8b
.	.	8a
=140	=140	=140
2c	2e	4.cc
.	.	8b
4B-	4d	8g
.	.	8f
4F	8c	[4a
.	[8f	.
=141	=141	=141
2A	8f]	8a]
.	4e	8g
.	.	8e
.	8c	8f
4B-	8f	4d
.	8d	.
4A	8e	8c
.	[8c	8f
=142	=142	=142
4c	8c]	8e
.	8e	4g
4B-	8d	.
.	4f	8b-
4F	.	4a
.	8e	.
[4A	8d	8f
.	16e	8e
.	16c	.
=143	=143	=143
4A]	8.c	8f
.	.	4g
.	16B-	.
4B-	4d	.
.	.	4f
2G	4.Bnx	.
.	.	8e
.	.	8e
.	8A	8d
=144	=144	=144
1F	1c	1f
==	==	==
*-	*-	*-
!!!ENC: Mark Laxton
!!!EDD: Mark Laxton
!!!YEC: Mark Laxton, 1987
!!!EMD: Reference records added by D. Huron, 2001
!!!EEV: 1.1
